Luxtrader/img/icons/catalog/catalog-grid.svg

<svg id="pattern" xmlns="http://www.w3.org/2000/svg" width="711" height="300"><defs><style>.cls-1{fill:none;stroke:#bb9c66;stroke-width:1px;fill-rule:evenodd}</style></defs><path class="cls-1" d="M1175 1838.01l11.99 11.99-11.99 11.99-11.99-11.99zm-351 0l11.993 11.99L824 1861.99 812.007 1850zm351 300l11.99 11.99-11.99 11.99-11.99-11.99zm-351 0l11.993 11.99L824 2161.99 812.007 2150zm351 300l11.99 11.99-11.99 11.99-11.99-11.99zm-351 0l11.993 11.99L824 2461.99 812.007 2450zm351-900l11.99 11.99-11.99 11.99-11.99-11.99zm-351 0l11.993 11.99L824 1561.99 812.007 1550z" transform="translate(-644 -1537.5)"/><path d="M825 1695a5 5 0 11-5 5 5 5 0 015-5zm350 0a5 5 0 11-5 5 5 5 0 015-5zm-350 300a5 5 0 11-5 5 5 5 0 015-5zm350 0a5 5 0 11-5 5 5 5 0 015-5zm-350 300a5 5 0 11-5 5 5 5 0 015-5zm350 0a5 5 0 11-5 5 5 5 0 015-5zm175-450" transform="translate(-644 -1537.5)" fill="#bb9c66" fill-rule="evenodd"/><path class="cls-1" d="M824 1575h1v100h-1v-100zm350 0h1v100h-1v-100zm-350 149h1v100h-1v-100zm350 0h1v100h-1v-100zM824 NaN" transform="translate(-644 -1537.5)"/></svg>

<svg id="pattern" xmlns="http://www.w3.org/2000/svg" width="711" height="300" viewBox="0 0 711 300">
  <defs>
    <style>
      .cls-1 {
        fill: none;
        stroke: #bb9c66;
        stroke-width: 1px;
      }

      .cls-1, .cls-2 {
        fill-rule: evenodd;
      }

      .cls-2 {
        fill: #bb9c66;
      }
    </style>
  </defs>
  <path class="cls-1" d="M1175,1838.01l11.99,11.99L1175,1861.99,1163.01,1850Zm-351,0L835.993,1850,824,1861.99,812.007,1850Zm351,300,11.99,11.99L1175,2161.99,1163.01,2150Zm-351,0L835.993,2150,824,2161.99,812.007,2150Zm351,300,11.99,11.99L1175,2461.99,1163.01,2450Zm-351,0L835.993,2450,824,2461.99,812.007,2450Zm351-900,11.99,11.99L1175,1561.99,1163.01,1550Zm-351,0L835.993,1550,824,1561.99,812.007,1550Z" transform="translate(-644 -1537.5)"/>
  <path class="cls-2" d="M825,1695a5,5,0,1,1-5,5A5,5,0,0,1,825,1695Zm350,0a5,5,0,1,1-5,5A5,5,0,0,1,1175,1695ZM825,1995a5,5,0,1,1-5,5A5,5,0,0,1,825,1995Zm350,0a5,5,0,1,1-5,5A5,5,0,0,1,1175,1995ZM825,2295a5,5,0,1,1-5,5A5,5,0,0,1,825,2295Zm350,0a5,5,0,1,1-5,5A5,5,0,0,1,1175,2295Zm175-450a5" transform="translate(-644 -1537.5)"/>
  <path class="cls-1" d="M824,1575h1v100h-1V1575Zm350,0h1v100h-1V1575ZM824,1724h1v100h-1V1724Zm350,0h1v100h-1V1724ZM824" transform="translate(-644 -1537.5)"/>
</svg>
